svgs/sharp-light/republican.svg

<svg xmlns="http://www.w3.org/2000/svg" viewBox="0 0 640 512"><!--! Font Awesome Pro 6.4.0 by @fontawesome - https://fontawesome.com License - https://fontawesome.com/license (Commercial License) Copyright 2023 Fonticons, Inc. --><path d="M0 176C0 96.5 64.5 32 144 32H368c79.5 0 144 64.5 144 144v96 64 16 16c0 8.8 7.2 16 16 16s16-7.2 16-16V272 256h16 64 16v16 96c0 61.9-50.1 112-112 112c-31.3 0-59.7-12.9-80-33.6V464v16H432 304 288V464 384H160v80 16H144 16 0V464 272 176zM528 448c44.2 0 80-35.8 80-80V288H576v80c0 26.5-21.5 48-48 48s-48-21.5-48-48V352 336 288H32V448h96V368 352h16H304h16v16 80h96V368 352h32v16c0 44.2 35.8 80 80 80zM32 256H480V176c0-61.9-50.1-112-112-112H144C82.1 64 32 114.1 32 176v80zM160 144v16h16 16v32H176 160v16 16H128V208 192H112 96V160h16 16V144 128h32v16zm112-16v16 16h16 16v32H288 272v16 16H240V208 192H224 208V160h16 16V144 128h32zm112 16v16h16 16v32H400 384v16 16H352V208 192H336 320V160h16 16V144 128h32v16z"/></svg>

<svg xmlns="http://www.w3.org/2000/svg" viewBox="0 0 640 512"><!--! Font Awesome Pro 6.6.0 by @fontawesome - https://fontawesome.com License - https://fontawesome.com/license (Commercial License) Copyright 2024 Fonticons, Inc. --><path d="M0 176C0 96.5 64.5 32 144 32l224 0c79.5 0 144 64.5 144 144l0 96 0 64 0 16 0 16c0 8.8 7.2 16 16 16s16-7.2 16-16l0-96 0-16 16 0 64 0 16 0 0 16 0 96c0 61.9-50.1 112-112 112c-31.3 0-59.7-12.9-80-33.6l0 17.6 0 16-16 0-128 0-16 0 0-16 0-80-128 0 0 80 0 16-16 0L16 480 0 480l0-16L0 272l0-96zM528 448c44.2 0 80-35.8 80-80l0-80-32 0 0 80c0 26.5-21.5 48-48 48s-48-21.5-48-48l0-16 0-16 0-48L32 288l0 160 96 0 0-80 0-16 16 0 160 0 16 0 0 16 0 80 96 0 0-80 0-16 32 0 0 16c0 44.2 35.8 80 80 80zM32 256l448 0 0-80c0-61.9-50.1-112-112-112L144 64C82.1 64 32 114.1 32 176l0 80zM160 144l0 16 16 0 16 0 0 32-16 0-16 0 0 16 0 16-32 0 0-16 0-16-16 0-16 0 0-32 16 0 16 0 0-16 0-16 32 0 0 16zm112-16l0 16 0 16 16 0 16 0 0 32-16 0-16 0 0 16 0 16-32 0 0-16 0-16-16 0-16 0 0-32 16 0 16 0 0-16 0-16 32 0zm112 16l0 16 16 0 16 0 0 32-16 0-16 0 0 16 0 16-32 0 0-16 0-16-16 0-16 0 0-32 16 0 16 0 0-16 0-16 32 0 0 16z"/></svg>
